!!!!SEGMENT: pl-sa--400-a-viii-40--002-002_pugnani-gaetano--trio-in-d-allegro.krn
!!!cenid: 17xx:2025
!!!COM: Pugnani, Gaetano
!!!COM-rismID: pe30002608
!!!CDT: 1731/11/27-1798/07/15
!!!CNT: Italian
!!!OPR: Trio in D
!!!OTL: Allegro
!!!OMV: 002
!!!PDT:
!!!AGN: Secular
!!!YEC: Copyright 2022 Narodowy Instytut Fryderyka Chopina (https://polishscores.org)
!!!YEM: License CC-BY-4.0 (https://creativecommons.org/licenses/by/4.0)
!!!SMS-siglum: PL-SA
!!!SMS-shelfmark: 400/A VIII 40
!!!SMS-shelfwork: 002-002 M
!!!SMS-variant:
!!!SMS-altvar:
!!!NIFC-rismSourceID: 1001104651
!!!NIFC-rismChildID: 1001104651
!!!NIFC-islandoraID: none
!!!URL-pdf-islandora:
!!!URL-scan: https://bc.bdsandomierz.pl/dlibra/publication/1703/edition/1671/content @EN{Scan in the Sandomierz Diocese Digital Library} @PL{Skany w portalu Cyfrowa Biblioteka Diecezjalna w Sandomierzu}
!!!IIIF:
!!!ONB-nifc: UWAGA: No 2do. Części: 1. Andante assai, 2. Allegro
!!!OMD: Allo
!!!AIN: 1 cbass 2 violn
!!!key: D
**kern	**kern	**kern
*part3	*part2	*part1
*staff3	*staff2	*staff1
*I"Baſso.	*I"Violino 2do	*I"Violino 1mo
*I'b	*I'vl 2	*I'vl 1
*Icbass	*Ivioln	*Ivioln
*ICstr	*ICstr	*ICstr
*IGcont	*	*
*clefF4	*clefG2	*clefG2
*k[f#c#]	*k[f#c#]	*k[f#c#]
*D:	*D:	*D:
*M3/8	*M3/8	*M3/8
*>[A,A,B,B]	*>[A,A,B,B]	*>[A,A,B,B]
=1	=1	=1
*>A	*>A	*>A
!LO:TX:t=P:problem:zgodnie z RISM "b part missing."	!	!
4.ryy	8d/L	4.dd\
.	8f#/	.
.	8g/J	.
=2	=2	=2
.	.	8qqdd/
4.ryy	8a/L	8cc#\L
.	8g/	8b\
.	8f#/J	8a\J
=3	=3	=3
*	*	*Xtuplet
!	!	!LO:TUP:a:problem:klamra łukowa
4.ryy	8g/L	24b\LL
.	.	24cc#\
.	.	24dd\JJ
.	8b/	8dd\L
.	8g/J	8b\J
=4	=4	=4
.	.	8qqb/
4.ryy	8f#/L	8a/L
.	8e/	8g/
.	8d/J	8f#/J
=5	=5	=5
4.ryy	8e/L	8g|/L
.	8c#/	16A|/L
.	.	16c#|/
.	8A/J	16e|/
.	.	16g|/JJ
=6	=6	=6
4.ryy	8d/L	8f#|/L
.	8f#/	16d|/L
.	.	16f#|/
.	8d/J	16a|/
.	.	16dd|/JJ
=7	=7	=7
!	!	!LO:TUP:a:problem:klamra łukowa
4.ryy	8g/L	24ee\LL
.	.	24ff#\
.	.	24gg\JJ
.	8a/	8dd\L
!	!	!LO:TX:t=P:problem:niejednoznaczny zapis ozdobnika [przyjęto mordent górny]:global
.	8A/J	8cc#m\J
=8	=8	=8
!	!	!LO:TX:t=P:problem:mixed beam
4.ryy	4.dd\	8dd\L
.	.	8f#/
.	.	8f#/J
=9	=9	=9
.	8qdd/	.
4.ryy	8cc#\L	8a/L
.	8b\	8g/
.	8a\J	8f#/J
=10	=10	=10
*	*Xtuplet	*
4.ryy	24b\LL	8g/L
.	24cc#\	.
.	24dd\JJ	.
!	!LO:TX:t=P:problem:niejednoznaczny zapis ozdobnika [przyjęto mordent górny]:global	!
.	8.ddM\L	8b/
.	.	8g/J
.	16b\Jk	.
=11	=11	=11
.	8qqb/	.
4.ryy	8a/L	8f#/L
.	8g/	8e/
.	8f#/J	8d/J
=12	=12	=12
4.ryy	8g/L	8e/L
.	(16A/L	8c#/
.	16c#/	.
.	16e/	8A/J
.	16g/JJ)	.
=13	=13	=13
4.ryy	8f#/L	8d/L
.	(16d/L	8f#/
.	16f#/	.
.	16a/	8d/J
.	16dd/JJ)	.
!	!	!LO:LB:g=original
=14	=14	=14
4.ryy	16ee\LL	4c#/
.	16ff#\JJ	.
.	8gg\L	.
.	8ff#\J	8d/
=15	=15	=15
.	8qqff#/	.
4.ryy	4.ee\	8a/L
.	.	8A/
.	.	8A/J
=16	=16	=16
4.ryy	4.dd\	4.ff#\
!	!LO:LB:g=original	!
=17	=17	=17
4.ryy	(8cc#\L	(8ee\L
.	8b\	8dd\
.	8a\J)	8cc#\J)
=18	=18	=18
!	!	!LO:TUP:a:problem:klamra łukowa
4.ryy	8d/L	24b\LL
.	.	24cc#\
.	.	24dd\JJ
.	.	8qqa/
.	8e/	4g#X/
.	8e/J	.
=19	=19	=19
4.ryy	8a/L	16.a/LL
.	.	32e/JK
.	8g#X/	8e/J
!	!	!LO:TUP:a:problem:klamra łukowa
.	8e/J	24b\LL
.	.	24cc#\
.	.	24dd\JJ
=20	=20	=20
4.ryy	8a/L	16.cc#/LL
.	.	32e/JK
.	8g#X/	8e/J
!	!	!LO:TUP:a:problem:klamra łukowa
.	8e/J	24b\LL
.	.	24cc#\
.	.	24dd\JJ
=21	=21	=21
4.ryy	8a/L	24cc#\LL
.	.	24dd\
.	.	24ee\JJ
.	8d/	16.ff#\LL
.	.	8qqee/
.	.	32dd\K
.	.	8qqdd/
.	8e/J	(16.cc#\
.	.	32b\JJk)
=22	=22	=22
4.ryy	16.a/LL	(8a/L
.	32e/JK	.
.	8e/J	8g#X/
!	!LO:TUP:a:problem:klamra łukowa	!
.	24b\LL	8e/J)
.	24cc#\	.
.	24dd\JJ	.
=23	=23	=23
!	!LO:TX:t=P:problem:mixed beam	!
4.ryy	16.cc#\LL	8a/L
.	32e/JK	.
!	!	!LO:SIC:v:o=8g/
.	8e/J	8g#/
!	!LO:TUP:a:problem:klamra łukowa	!
.	24b\LL	8e/J
.	24cc#\	.
.	24dd\JJ	.
=24	=24	=24
!	!LO:TUP:a:problem:klamra łukowa	!
4.ryy	24cc#\LL	8a/L
.	24dd\	.
.	24ee\JJ	.
!	!LO:TX:t=P:problem:mixed beam	!
.	8ff#\L	8d/
.	8g#X/J	8e/J
=25	=25	=25
4.ryy	4a 4e 4A/	4a 4e 4A/
.	8r	8r
!	!	!LO:LB:g=original
=26:|!|:	=26:|!|:;	=26:|!|:;
*>B	*>B	*>B
4.ryy	4cc#\	4ee\
!	!	!LO:TUP:a:problem:klamra łukowa
.	24a\LL	24cc#\LL
.	24b\	24dd\
.	24cc#\JJ	24ee\JJ
=27	=27	=27
.	8qqcc#/	8qqee/
4.ryy	4b\	4dd\
!	!LO:TUP:a:problem:klamra łukowa	!LO:TUP:a:problem:klamra łukowa
.	24g#X\LL	24b\LL
.	24a\	24cc#\
.	24b\JJ	24dd\JJ
=28	=28	=28
.	8qqb/	8qqdd/
4.ryy	4.a\	4.cc#\
=29	=29	=29
4.ryy	4ff#\	4aa\
!	!LO:TUP:a:problem:klamra łukowa	!
.	24dd\LL	24ff#\LL
.	24ee\	24gg\
.	24ff#\JJ	24aa\JJ
=30	=30	=30
.	8qqff#/	.
4.ryy	4ee\	4gg\
!	!LO:TUP:a:problem:klamra łukowa	!
.	24cc#\LL	24ee\LL
.	24dd\	24ff#\
.	24ee\JJ	24gg\JJ
!	!LO:LB:g=original	!
=31	=31	=31
.	8qqee/	8qqgg/
4.ryy	4.dd\	4.ff#\
=32	=32	=32
4.ryy	16r	4ff#\
.	16a#X/LL	.
.	16g#X/	.
.	16f#/	.
.	16g#/	8ee\
.	16a#/JJ	.
=33	=33	=33
4.ryy	(16b/LL	8dd\L
.	16f#/)	.
.	(16cc#/	8a#X\
.	16f#/)	.
.	(16dd/	8b\J
.	16f#/JJ)	.
=34	=34	=34
.	.	8qdd/
4.ryy	(16ee/LL	8cc#\L
.	16f#/)	.
.	(16dd/	8b\
.	16f#/)	.
.	(16cc#/	8a#X\J
.	16f#/JJ)	.
=35	=35	=35
4.ryy	8dd\L	8b/L
.	8cc#m\	8f#/
.	8b\J	8B/J
=36	=36	=36
4.ryy	16r	4ee\
.	16g#X/LL	.
.	16f#/	.
.	16e/	.
.	16f#/	8dd\
.	16g#/JJ	.
=37	=37	=37
4.ryy	(16a/LL	8cc#\L
.	16e/)	.
.	(16b/	8g#X\
.	16e/)	.
.	(16cc#/	8a\J
.	16e/JJ)	.
=38	=38	=38
.	.	8qcc#/
4.ryy	(16dd/LL	8b/L
.	16e/)	.
.	(16cc#/	8a/
.	16e/)	.
.	(16b/	8g#X/J
.	16e/JJ)	.
=39	=39	=39
4.ryy	8cc#\L	8a/L
.	8bM\	8e/
.	8a\J	8A/J
=40	=40	=40
*k[]	*k[]	*k[]
4.ryy	16r	4.dd\
.	16f/LL	.
.	16e/	.
.	16d/	.
.	16c#X/	.
.	16d/JJ	.
!	!	!LO:LB:g=original
=41	=41	=41
4.ryy	8d/	8dd\L
.	8r	8ee\
.	8r	8ff\J
=42	=42	=42
.	.	8qqff/
4.ryy	16r	4.ee\
.	16c#X/LL	.
.	16B/	.
.	16A/	.
.	16G#X/	.
.	16A/JJ	.
!	!LO:LB:g=original	!
=43	=43	=43
4.ryy	8A/	(8ee\L
.	8r	8ff\
.	8r	8gg\J)
=44	=44	=44
4.ryy	8d/L	16ff\LL
.	.	16dd\JJ
.	8f/	8a\L
.	8a/J	8b-X\J
=45	=45	=45
!	!	!LO:SIC:v:o=8qb/
.	.	8qb-/
4.ryy	8f/L	8a/L
.	8e/	8g/
.	8d/J	8f/J
=46	=46	=46
!	!LO:N:vis=4	!
4.ryy	8d/	8fL 8A/
.	16.c#X/LL	8eJ 8A/
.	32e/K	.
.	16.a/	8r
.	32g/JJk	.
=47	=47	=47
*	*^	*
4.ryy	8a/L	8f\L	4.ff\
.	8a/	8f\	.
.	8a/J	8f\J	.
=48	=48	=48	=48
4.ryy	8a/L	8f\L	16ff/LL
.	.	.	16cc/
.	8a/	8f\	16b-X/
.	.	.	16a/
.	8a/J	8f\J	16g/
.	.	.	16f/JJ
=49	=49	=49	=49
4.ryy	8b-X/L	8f\L	4.dd\
.	8b-/	8f\	.
.	8b-/J	8f\J	.
=50	=50	=50	=50
!	!LO:SIC:v:o=8b/L	!	!
4.ryy	8b-/L	8f\L	(16dd\LL
.	.	.	16ff\)
!	!LO:SIC:v:o=8b/	!	!
.	8b-/	8f\	(16ee\
.	.	.	16ff\)
!	!LO:SIC:v:o=8b/J	!	!
.	8b-/J	8f\J	(16ee\
.	.	.	16ff\JJ)
=51	=51	=51	=51
4.ryy	8a/L	8f\L	4cc\
.	8a/	8f\	.
.	8a/J	8f\J	24a\LL
.	.	.	24b-X\
.	.	.	24cc\JJ
*	*v	*v	*
=52	=52	=52
.	.	8qqcc/
!	!	!LO:SIC:v:o=4.b\
4.ryy	8g/L	4.b-\
.	8e/	.
.	8c/J	.
=53	=53	=53
4.ryy	8f/L	4a\
.	8f/	.
.	8f/J	8r
=54	=54	=54
4.ryy	16r	4.aa\
.	16f#X/LL	.
.	16e/	.
.	16d/	.
.	(16c#X/	.
.	16d/JJ)	.
=55	=55	=55
4.ryy	8d/L	16aa\LL
.	.	16cc\J
.	8e/	8cc\J
!	!	!LO:TX:t=P:problem:mixed beam
.	8f#X/J	(16e/LL
.	.	16cc\JJ)
!	!	!LO:LB:g=original
=56	=56	=56
!	!	!LO:SIC:v:o=16b/LL
4.ryy	8g/L	16b-/LL
.	.	16dd/
.	8a/	16f#X/
.	.	16a/J
.	8b-X/J	8g/J
=57	=57	=57
4.ryy	16r	4.gg\
.	16e/LL	.
.	16d/	.
.	16c/	.
.	(16B/	.
.	16c/JJ)	.
!	!LO:LB:g=original	!
=58	=58	=58
4.ryy	8c/L	16gg\LL
.	.	16b-X\J
.	8d/	8b-\J
!	!	!LO:TX:t=P:problem:mixed beam
.	8e/J	(16c/LL
.	.	16b-\JJ)
=59	=59	=59
4.ryy	8f/L	(16a/LL
.	.	16cc/
.	8g/	16e/
.	.	16g/J
.	8a/J	8f/J)
=60	=60	=60
.	.	8qqcc/
4.ryy	8g/L	16b-X/LL
.	.	16a/
.	8G/	16g/
.	.	16f/
.	8G#X/J	16e/
.	.	16d/JJ
=61	=61	=61
4.ryy	8A/L	8a 8e 8c#X/
.	8c#X/	16A/LL
.	.	16c#/
.	8A/J	16e/
.	.	16a/JJ
=62	=62	=62
4.ryy	8g/L	16f/LL
.	.	16a/
.	8G/	16e/
.	.	16a/
.	8G#X/J	16d/
.	.	16a/JJ
=63	=63	=63
4.ryy	8A/L	8a 8e 8c#X/
.	8c#X/	16A/LL
.	.	16c#/
.	8A/J	16e/
.	.	16a/JJ
=64	=64	=64
4.ryy	8d/L	16f/LL
.	.	16a/
.	8cn/	16e/
.	.	16a/
.	8B-X/J	16d/
.	.	16a/JJ
=65	=65	=65
4.ryy	8A/L	8aL 8e 8c#X/
.	16a/L	8A/J
.	16g/	.
.	16f#X/	8r
.	16e/JJ	.
!	!	!LO:LB:g=original
=66	=66	=66
*k[f#c#]	*k[f#c#]	*k[f#c#]
4.ryy	8d/L	4.dd\
.	8f#/	.
.	8g/J	.
=67	=67	=67
.	.	8qqdd/
4.ryy	8a/L	8cc#\L
.	8g/	8b\
.	8f#/J	8a\J
=68	=68	=68
4.ryy	8g/L	24b\LL
.	.	24cc#\
.	.	24dd\JJ
.	8b/	8.ddM\L
.	8g/J	.
.	.	16b\J
=69	=69	=69
.	8qqg/	8qqb/
4.ryy	8f#/L	8a/L
.	8e/	8g/
.	8d/J	8f#/J
=70	=70	=70
4.ryy	8e/L	8g/L
.	8c#/	(16A/L
.	.	16c#/)
.	8A/J	(16e/
.	.	16g/JJ)
=71	=71	=71
4.ryy	8d/L	8f#/L
.	8f#/	(16d/L
.	.	16f#/
.	8d/J	16a/
.	.	16dd/JJ)
=72	=72	=72
4.ryy	8G/L	24e/LL
.	.	24f#/
.	.	24g/JJ
.	.	8qqd/
.	8A/	4c#/
.	8A/J	.
!	!LO:LB:g=original	!
=73	=73	=73
!	!	!LO:TX:a:t=d
4.ryy	16d/LL	8d/L
.	16A/J	.
.	8A/J	8c#/
.	24e/LL	8A/J
.	24f#/	.
.	24g/JJ	.
=74	=74	=74
4.ryy	16f#/LL	8d/L
.	16A/J	.
.	8A/J	8c#/
.	24e/LL	8A/J
.	24f#/	.
.	24g/JJ	.
=75	=75	=75
4.ryy	16f#/LL	8d/L
.	32g/L	.
.	32a/JJJ	.
.	16.b/LL	8G/
.	32g/K	.
.	16.f#/	8A/J
.	32e/JJk	.
=76	=76	=76
4.ryy	8d/L	16.d/LL
.	.	32A/JK
.	8c#/	8A/J
.	8A/J	24e/LL
.	.	24f#/
.	.	24g/JJ
!	!	!LO:LB:g=original
=77	=77	=77
4.ryy	8d/L	16.f#/LL
.	.	32A/JK
.	8c#/	8A/J
!	!	!LO:TUP:b:problem:klamra łukowa, kropka zamiast numeru
.	8A/J	24e/LL
.	.	24f#/
.	.	24g/JJ
=78	=78	=78
4.ryy	8d/L	24f#/LL
.	.	24g/
.	.	24a/JJ
.	8G/	16.b/LL
.	.	32g/K
.	.	8qqf#/
.	8A/J	16.f#/
.	.	32e/JJk
=79	=79	=79
4.ryy	4ff# 4a 4d/	4ff# 4a 4d/
.	8r	8r
=:|!	=:|!;	=:|!;
*-	*-	*-
!!!system-decoration: [(s1,s2,s3)]
!!!RDF**kern: | = vertical stroke
!!!RDF**kern: i = editorial accidental
!!!ENC: Katarzyna Serwa
!!!END: 2021-10-28
!!!ENC: Andrzej Kubiczek
!!!END: 2021-03-10
